X: 30561
T: Once I Caught A Fish Alive
R: polka
M: 2/4
K: Gmajor
B2B2|AG G2|FG AB|d^c =c2|c2 c2|BA A2|GF EF|AG G2:|
D2 GA|B3A/B/|cc ED|B4|dd A>A|BB G>G|AA EF|1 GF ED:|2 G4||
B2B2|AG G2|FG AB|d^c =c2|c2 c2|BA A2|GF EF|AG G2:|
BF BF|BF F/E/F/A/|GE E>G|FB B2|BF BF|BF F/E/F/A/|GE EA/G/|FD D2|
B2B2|AG G2|FG AB|d^c =c2|c2 c2|BA A2|GF EF|AG G2||

